!!!!SEGMENT: pl-wtm--r-1465_stefani-jozef--och-ty-nie-wiesz-pewno-wcale.krn
!!!cenid: 18xx:2215
!!!COM: Stefani, Józef
!!!COM-rismid: pe30024097
!!!CDT: 1800/04/16-1876/03/19
!!!CNT: Polish
!!!OTL: Och, ty nie wiesz pewno wcale
!!!PDT:
!!!AGN:
!!!SMS-siglum: PL-Wtm
!!!SMS-shelfmark: R 1465
!!!SMS-shelfwork: W
!!!SMS-variant:
!!!SMS-altvar:
!!!NIFC-rismid: 1001121134
!!!URL-scan: http://repozytorium.nifc.pl/skany/pl-wtm-nut--r1465
!!!ONB-nifc:
!!!OMD: All.o. modera_to_
**kern	**kern	**dynam	**kern	**text	**text
*part2	*part2	*part2	*part1	*part1	*part1
*staff3	*staff2	*	*staff1	*staff1	*staff1
*Iempty	*Iforte	*	*Iempty	*	*
*	*I"Fortepian	*	*I"Śpiew	*	*
*clefF4	*clefG2	*	*clefG2	*	*
*k[b-e-a-]	*k[b-e-a-]	*	*k[b-e-a-]	*	*
*E-:	*E-:	*	*E-:	*	*
*M3/4	*M3/4	*	*M3/4	*	*
*all\right	*all\right	*	*all\right	*	*
=1	=1	=1	=1	=1	=1
!	!	!	!LO:TX:t=P:problem:znak [segno] nad metrum	!	!
4EE-/	8.ee-L 8.g/	mf	8.ee-\	Oh!	O-
.	16ddJk 16b-/	.	16dd\	ty	-gień
4E-\	4cc 4a-/	.	4cc\	nie	bi-
!	!	!	!LO:TX:a:i:t=(&colon; dobra na cholerę &colon;)	!	!
4E-\	4b- 4g/	.	4b-\	wiesz	-ie
=2	=2	=2	=2	=2	=2
4EE-/	8.ccL 8.a-/	.	8.cc\	pe-	z_mej
.	16b-Jk 16g/	.	16b-\	-wno	zre-
4E-\	4g 4e-/	.	4g/	wca-	-ni-
4E-\	4b- 4g/	.	4b-\	-le,	-cy,
=3	=3	=3	=3	=3	=3
4BB-/	8.a-L 8.f/	.	8.a-/	U-	Gdy
.	16gJk 16e-/	.	16g/	-bó-	wy-
4B-\	4f 4d/	.	4f/	-stwia-	-pi-
4B-\	4b- 4d/	.	4b-/	-ny	-wszy
!!LO:LB:g=original
=4	=4	=4	=4	=4	=4
.	(8qa-/	.	(8qa-/	.	.
4E- 4EE-/	8.g/L)	.	8.g/)	i-	wód
.	16f/Jk	.	16f/	-de	z_Kry-
4B- 4G 4E-\	4g/	.	4g/	a-	-ni-
4B- 4G 4E-\	4e-/	.	4e-/	-le,	-cy
=5	=5	=5	=5	=5	=5
4BB- 4BBB-/	4r	.	8.f/	Co	Gry-
.	.	.	16f/	się	-ziesz
*	*tremolo	*	*	*	*
!	!LO:TX:b:t=..	!	!	!	!
4r	8ddL 8b- 8f'/	.	4dd\	w_ser-	pier-
.	8ddJ 8b- 8f'/	.	.	.	.
!	!LO:TX:b:t=..	!LO:HP:t=cresc	!	!	!
4r	8b-L 8f 8d'/	<	4b-\	-cu	-nik
.	8b-J 8f 8d'/	.	.	.	.
=6	=6	=6	=6	=6	=6
4E- 4EE-/	4r	.	8.g/	mo-	i
.	.	.	16g/	-jém	z_pa-
!	!LO:TX:b:t=..	!	!	!	!
4r	8ee-L 8cc 8g/	.	4ee-\	dzie-	-ra-
.	8ee-J 8cc 8g/	.	.	.	.
!	!LO:TX:b:t=..	!	!	!	!
4r	8ccL 8g 8e-/	.	4cc\	-je,	-dą,
.	8ccJ 8g 8e-/	.	.	.	.
=7	=7	=7	=7	=7	=7
!	!	!LO:DY:rj	!	!	!
4F 4FF/	4r	f	8.an/	Kie-	Sta-
.	.	.	16cc\	-dy	-niesz
!	!LO:TX:b:t=..	!	!	!	!
4r	8anL 8f 8e- 8c/	.	4.ff\	wej-	so-
.	8aJ 8f 8e- 8c/	.	.	.	.
!	!LO:TX:b:t=..	!	!	!	!
4r	8aL 8f 8e- 8c/	.	.	.	.
.	8aJ 8f 8e- 8c/	.	8a/	-dziesz	-bie
*	*Xtremolo	*	*	*	*
!!LO:LB:g=original
=8	=8	=8	=8	=8	=8
.	.	.	(8qcc/	.	.
4B- 4BB-\	4r	.	8.b-\)	w_tę	przed
.	.	.	16an\	a-	e-
4r	8b-L 8f 8d/	.	4b-\	-le-	-stra-
.	8b-J 8f 8d/	.	.	.	.
4r	4b- 4f 4d/	.	4b-\	-ję,	-dą,
=9	=9	=9	=9	=9	=9
!	!	!LO:DY:t=piiano	!	!	!
4BB- 4BBB-/	4r	p	8.a-X/	Z_Któ-	Gdzie
.	.	.	16f/	-rej	pan
4r	4ff 4a- 4f/	.	4ff\	pa-	Ku-
4r	4a- 4f/	.	4a-/	-trzę	-krze
=10	=10	=10	=10	=10	=10
4E- 4EE-/	4r	.	8.g/	na	Ki-
.	.	.	16cc\	cię	-jem
4r	4b- 4g/	.	4b-\	z_da-	ma-
4C 4CC/	4ee- 4g/	.	4ee-\	-la	-cha
!!LO:LB:g=original
=11	=11	=11	=11	=11	=11
!	!	!LO:DY:rj	!	!	!
8.A-L 8.AA-\	8.ccL 8.a- 8.e-/	f	8.cc\	Tra	Hi
16A-Jk 16AA-\	16ccJk 16a- 16e-/	.	16cc\	la	ha
4B- 4BB-\	4b- 4g 4e-/	.	4b-\	la	ha
4B- 4BB-\	4dd 4b- 4a- 4f/	.	4dd\	la	ha
=12	=12	=12	=12	=12	=12
.	.	.	(8qff/	.	.
8.B-L 8.E-\	8.ee-L 8.b- 8.g/	.	8.ee-\)	tra	hi
16B-Jk 16BB-\	16ddJk 16b- 16a- 16f/	.	16dd\	la	ha
4B- 4E-\	4ee- 4b- 4g/	.	4ee-\	la.	ha.
4r	4ee-\	.	4r	.	.
=13	=13	=13	=13	=13	=13
4BB-/	(16dd\LL	.	2.r	.	.
.	16ff\	.	.	.	.
.	16aa-\	.	.	.	.
.	16ccc\JJ	.	.	.	.
4B- 4A- 4F\	4bb-\	.	.	.	.
4B- 4A- 4F\	4dd\)	.	.	.	.
!!LO:PB:g=original
=14	=14	=14	=14	=14	=14
4E- 4EE-/	(16ee-\LL	.	2.r	.	.
.	16gg\	.	.	.	.
.	16bb-\	.	.	.	.
.	16ccc\JJ	.	.	.	.
4B- 4G 4E-\	4bb-\	.	.	.	.
4B- 4G 4E-\	4ee-\)	.	.	.	.
=15	=15	=15	=15	=15	=15
8.A-L 8.AA-\	8.cccL 8.aa- 8.ee-\	.	2.r	.	.
16A-Jk 16AA-\	16cccJk 16aa- 16ee-\	.	.	.	.
4B- 4BB-\	4bb- 4gg 4ee-\	.	.	.	.
4BB- 4BBB-/	4ddd 4aa- 4ff\	.	.	.	.
=16	=16	=16	=16	=16	=16
!	!	!	!LO:TX:a:i:t=a – reszta strof,\nw świątecznym \nKurierze.	!	!
4E- 4EE-/	4eee- 4gg 4ee-\	.	2.r	.	.
*2\right	*	*	*	*	*
2E- 2EE-\	2e- 2B- 2G/	.	.	.	.
==	==	==	==	==	==
*-	*-	*-	*-	*-	*-
!!!system-decoration: <s1>{(s2,s3)}
!!!ENC: Andrzej Kubiczek
!!!END: 2021-06-05
!!!ENC: Katarzyna Serwa
!!!END: 2021-05-19
